X:1
T: The Bride's Reel
C:J. Scott Skinner
R:Reel
Q: 232
K:D
M:4/4
L:1/8
|:((3ABc)|d2AG FD A,D|B,D A,D CE Ac|d2AF GB ed|cA ag fd dA|
d2AG FD A,D|B,D A,D CE Ac|dc dA BG dB|AF GE FD Dg|
fg af dA FD|GB ed cA ag|fg af dA FD|GB Ac dD Dg|
fg af dA FD|GB ed cA Bc|df eg fa gb|af ge fd d:|
